X:1
T:Title
%%score { 1 | ( 2 3 ) }
L:1/8
M:3/4
K:Bb
V:1 treble nm="Grand Piano"
V:2 bass 
V:3 bass 
V:1
 z2 z2[Q:1/4=100] [DF]2 | [Fd]3 [Ec] [Ge][Fd] | [Gc]2 [B,GB]2 [B,EG]2 | %3
 [B,DF]4[K:bass] [F,B,D]>[F,CE] | [DF]4 [DB]2 | B3 c AB | c2 F2 c2 | e2 d2 c2 |[M:2/4] [DB]4 | %9
[M:1/4] [DB]2 |[M:3/4] [GB]4 [FA][EG] | [DF]2 [B,D]2 z [DF] | F2 c2 z F | [DF]2 [Fd]2 [DB]2 | %14
 [GB]4 [FA][EG] | [DF]2 [B,D]2 [DF]2 | F2 c2 A2 |[M:2/4] [DB]4 |] %18
V:2
 z2 z2 [B,,B,]2 | [B,,B,]4 [B,,B,][B,,B,] | [E,B,]2 E,2 E,2 | z2 z G B,,>B,, | [B,,B,]4 [B,,B,]2 | %5
 [F,CE]4 [F,C][F,B,D] | [F,A,E]2 [F,A,E]2 [F,A,E]2 | [F,A,G]2 [F,A,F]2 [F,E]2 |[M:2/4] [B,,F,]4 | %9
[M:1/4] [B,,B,]2 |[M:3/4] [E,B,]4 [E,B,][E,B,] | [B,,B,]2 [B,,F,]2 z [B,,B,] | %12
 [F,A,E]2 [F,A,E]2 z [F,A,E] | [B,,B,]2 [B,,B,]2 [B,,B,]2 | [E,B,]4 [E,B,][E,B,] | %15
 [B,,B,]2 [B,,F,]2 [B,,B,]2 | [F,A,E]2 [F,A,E]2 [F,CE]2 |[M:2/4] [B,,B,]4 |] %18
V:3
 x6 | x6 | x6 | B,,4 z2 | x6 | x6 | x6 | x6 |[M:2/4] x4 |[M:1/4] x2 |[M:3/4] x6 | x6 | x6 | x6 | %14
 x6 | x6 | x6 |[M:2/4] x4 |] %18

